svg/u2744.svg

<svg viewBox="0 0 128 128" xmlns="http://www.w3.org/2000/svg">
  <path d="M69.83,50.53l-0.4-18.43c0,0,9.61-5.08,11.45-8.43s1.08-8.97-0.97-9.18 C77.86,14.28,69,20.76,68.25,20c-0.76-0.76,3.67-6.16,3.46-8.21c-0.22-2.05-6.81-7.07-6.81-7.07l-7.45,8.47c0,0,2.16,6.7,1.84,7.35 s-10.48-5.62-12.64-5.19c-2.16,0.43-1.42,4.82-0.67,6.88c0.76,2.05,14.6,8.46,14.6,8.46l-0.6,20.12c0,0-2.53-0.04-3.18,0.29 c-0.65,0.32-2.2,2.92-2.2,2.92s-14.55-7.88-14.66-9.5s0.22-16.1-0.54-17.61c-0.76-1.51-4-3.27-5.62-3.27s-2.7,16.01-3.67,16.01 s-4.65-9.4-5.73-9.4c-1.08,0-9.45,1.4-9.45,1.4l3.19,12.75l9.94,2.05L15.89,60.21c0,0,2.98,2.9,5.79,2.25s10.91-8.75,11.77-8.75 c0.86,0,15.56,8.43,15.56,8.43s-0.65,1.51-0.22,2.38c0.43,0.86,1.19,1.94,1.19,1.94s-14.58,8.86-15.56,8.64s-10.8-7.24-13.61-7.24 s-4.54,3.67-4.54,3.67l11.67,9.83l-9.83,4.86l-4.21,8.75c0,0,9.51,3.35,10.8,3.02s4.65-8.32,5.29-8.53 c0.65-0.22,0.89,1.82,0.89,1.82s3.43,10.72,4.73,10.39s4.54-2.38,4.97-4S39.94,83.2,39.94,83.2l15.34-8.33c0,0,1.22,1.98,2.05,2.58 c0.65,0.47,3.88,0.78,3.88,0.78l-0.43,16.74c0,0-16,6.9-16.54,8.84c-0.54,1.94-0.42,6.28,1.1,6.82c1.51,0.54,13.31-4.86,13.85-4.43 c0.54,0.43-0.23,8.42-0.23,8.42s6.34,8.96,7.74,8.1s6.31-6.36,6.35-7.38c0.09-1.93-4.72-8.58-4.63-8.97 c0.19-0.85,9.98,6.2,11.71,5.98c1.73-0.22,3.02-2.05,3.02-4.11c0-2.05-13.18-11.77-13.18-11.77L69.76,77.9c0,0,2.55-0.14,3.42-0.57 c0.86-0.43,2.58-4.34,2.58-4.34l15.71,10.53c0,0-0.65,17.72,0.97,18.8c1.62,1.08,4.54,1.73,5.62,1.19 c1.08-0.54,1.19-15.66,1.19-15.66l6.81,6.16c0,0,9.78-0.87,9.78-2.17s-1.96-8.64-2.75-9.28c-1.41-1.14-7.63-0.58-8.36-0.97 c-0.58-0.31,11.38-5.08,11.38-7.02s-3.91-5.01-4.99-5.12c-1.08-0.11-15.21,6.2-15.21,6.2l-16.42-9.72c0,0,0.86-1.51,0.86-2.27 s-1.07-2.03-1.07-2.03l16.84-9.2c0,0,14.8,5.29,16.2,4.65c1.4-0.65,2.59-1.84,2.59-3.02s-12.5-6.93-11.56-7.45 c0.72-0.4,7.67,0.43,8.75,0c1.08-0.43,4.52-9.19,4.41-9.62c-0.11-0.43-11.76-3.34-11.76-3.34l-5.19,6.16c0,0,0.86-11.67-0.43-12.96 s-4.78-0.65-6.18,0.32c-1.4,0.97-2.24,18.15-2.24,18.15l-15.84,8.59c0,0-1.48-2.38-2.35-2.82C71.67,50.62,69.83,50.53,69.83,50.53z" fill="#95C7EC"/>
  <path d="M76.44,56.05l18.56-9.68L94.72,26.4c0,0-2.88,0.49-4.29,2.37c-1.41,1.88-0.94,14.51-0.94,14.51 l-16.06,8.73L76.44,56.05z" fill="#AFE3FF"/>
  <path d="M99.48,43.9c0,0,6.08-7.56,7.25-7.94c1.96-0.64,9.53,2.02,9.53,2.02s0.84-2.09,0.5-2.9 c-0.34-0.81-9.65-4.97-11.88-4.18c-1.74,0.62-5.28,7.34-5.28,7.34L99.48,43.9z" fill="#AFE3FF"/>
  <path d="M98.96,50.74c-0.4-0.07-3.64,2.05-3.64,2.05s9.62,5.83,12.44,5.96c3.48,0.17,5.78-2.37,5.78-2.37 s-2.49,0.07-4.3-0.6C106.29,54.68,98.96,50.74,98.96,50.74z" fill="#AFE3FF"/>
  <path d="M77.19,70.09l-2.28,4.64c0,0,13.71,8.53,13.77,8.94c0.07,0.4-0.34,15.18,1.08,16.86 c1.41,1.68,4.1,2.55,4.1,2.55s0.81-21.77,0.74-22.11C94.52,80.63,77.19,70.09,77.19,70.09z" fill="#AFE3FF"/>
  <path d="M94.68,74.88c0,0,9.66-6.54,12.28-6.54c2.62,0,4.84,1.34,4.84,1.34l-12.78,7.73L94.68,74.88z" fill="#AFE3FF"/>
  <path d="M99.7,84.71c-0.34,0.94-0.51,4.46-0.51,4.46s3.14,7.39,5.35,8.19c2.22,0.81,10.68-2.35,11.36-3.16 c0.67-0.81-0.32-4.09-0.32-4.09s-6.69,2.65-8.69,2.28C104.33,91.92,99.7,84.71,99.7,84.71z" fill="#AFE3FF"/>
  <path d="M59.03,54.84c-0.97,0.97-5.2,7.18-5.28,8.38c-0.08,1.21,4.63,9.26,5.76,9.9 c1.13,0.64,10.23,0,10.23,0l4.67-9.59c0,0-4.11-8.78-4.75-8.94S59.68,54.19,59.03,54.84z" fill="#AFE3FF"/>
  <path d="M63.18,22.06c0.64,0.12-2.37-8.95-2.37-8.95l6.66-6.29c0,0-2.48-3.06-3.76-3.06 c-1.29,0-8.3,6.52-8.3,8.06s3.87,8.72,3.87,8.72S61.96,21.83,63.18,22.06z" fill="#AFE3FF"/>
  <path d="M45.24,18.93c0,0,0.01,4.53,1.46,6.14c1.45,1.61,11.77,6.66,11.77,6.66l0.26,19.11l4.49-0.02V28.58 c0,0-8.94-4.27-10.71-5.07C50.74,22.7,46.53,20.62,45.24,18.93z" fill="#AFE3FF"/>
  <polygon points="39.62,47.67 53.15,56.21 55.33,52.91 39.94,43.89 " fill="#AFE3FF"/>
  <path d="M29.97,39.74c0,0,2.86,2.81,3.48,2.79c1.2-0.04,1.12-18.75,1.12-18.75s-2.31-0.87-3.52,0.26 C29.83,25.16,29.97,39.74,29.97,39.74z" fill="#AFE3FF"/>
  <path d="M28.51,44.29c2.87,0.73,2.33,2.74,1.93,3.38c-0.4,0.64-13.53,13.37-13.53,13.37s-2.5-1.37-2.5-2.82 c0-1.45,11.39-10.82,10.79-10.96c-0.47-0.1-8.62,1.27-10.39,0.16c-1.14-0.71-4.3-12.6-3.7-14.2c0.48-1.29,4.59-1.67,4.59-1.67 s1.45,10.63,2.58,11.2C19.4,43.32,26.22,43.71,28.51,44.29z" fill="#AFE3FF"/>
  <polygon points="49.7,65.97 33.66,74.77 37.69,78.04 51.7,69.02 " fill="#AFE3FF"/>
  <path d="M31.41,80.78c-0.12,1.37-5.76,4.13-6.24,4.54c-0.48,0.4-5.76-0.83-6.09-0.35 c-0.32,0.48-3.35,9.8-3.92,10.35c-0.08,0.08-3.29-0.92-3.53-1.45c-0.58-1.27,3.02-11.32,4.63-12.77c1.61-1.45,8.7,0.4,8.94-0.08 c0.24-0.48-9.26-5.64-9.99-7.25c-0.72-1.61,2.34-4.19,2.34-4.19S31.57,78.92,31.41,80.78z" fill="#AFE3FF"/>
  <path d="M33.49,86.1c-0.53-0.37-3.32,3.34-3.32,3.34s0.98,11.99,1.89,12.76c0.92,0.78,3.57-0.54,3.57-0.54 S34.29,86.66,33.49,86.1z" fill="#AFE3FF"/>
  <path d="M59.2,77.93c0,0,0.15,14.93-0.17,15.49c-0.32,0.56-12.47,6.33-14.18,8.54 c-1.16,1.5-0.86,5.45-0.86,5.45s18.66-10.52,19.06-10.84c0.4-0.32,0.09-18.59,0.09-18.59L59.2,77.93z" fill="#AFE3FF"/>
  <path d="M83.13,108.57c0,0-12.83-7.95-12.98-9.02c-0.15-1.02-0.23-5.44-0.23-5.44s11.27,7.93,12.4,9.78 C83.45,105.74,83.13,108.57,83.13,108.57z" fill="#AFE3FF"/>
  <path d="M60.4,113.56c0.2,2.09,7.62,8.05,7.62,8.05s-2.35,2.54-3.56,2.62c-1.21,0.08-9.14-7.53-9.3-8.81 c-0.16-1.29,4.03-9.42,4.03-9.42s1.88-0.9,3.3-1.2C63.39,104.6,60.21,111.53,60.4,113.56z" fill="#AFE3FF"/>
  <path d="M71,62.49c0,0-1.19,2.37-1.78,3.71s-1.33,3.63-1.33,3.63s-5.56,0.43-7.04,0.37 c-1.93-0.07-3.04,3.41-0.22,3.48c2.82,0.07,9.56,0.22,10.15-0.22c0.59-0.44,4.96-8.45,4.96-10.23s-3.85-6.74-5.26-8.15 c-1.64-1.64-4.52,0-2.89,2.67S71,62.49,71,62.49z" fill="#FEFEFE"/>
  <path d="M93.43,29.63c-2.26-0.08-2.09,2.98-2.01,6.52s0.32,5.88,2.17,5.88c2.26,0,1.85-4.91,1.85-7.17 C95.44,32.61,95.77,29.71,93.43,29.63z" fill="#FEFEFE"/>
  <path d="M63.79,7.56c1.31,1.31-0.48,3.54-1.21,4.19c-0.72,0.64-2.74,1.93-4.11,0.64S58.71,9.25,60,8.28 C61.29,7.31,62.82,6.59,63.79,7.56z" fill="#FEFEFE"/>
  <path d="M63.3,27.86c-2.09-0.24-2.01,4.91-1.93,11.2c0.1,8.06,0,11.84,1.69,11.76 c1.93-0.09,1.37-4.11,1.37-12.49C64.43,33.73,64.91,28.04,63.3,27.86z" fill="#FEFEFE"/>
  <path d="M14.97,33.09c-2.73,0.85-1.53,4.19-0.81,6.61c0.46,1.54,1.86,5.93,4.43,5.16 c2.57-0.77,1.05-4.43,0.48-6.77C18.52,35.75,17.31,32.37,14.97,33.09z" fill="#FEFEFE"/>
  <path d="M92.3,89.56c-1.61,0-1.77,3.06-1.77,5.8s0,4.75,1.85,4.75c1.85,0,1.53-4.03,1.53-5.48 C93.91,93.18,94.16,89.56,92.3,89.56z" fill="#FEFEFE"/>
  <path d="M63.14,77.88c-1.37,0.06-1.53,3.14-1.53,9.18s-0.33,9.61,1.69,9.51c1.61-0.08,1.29-6.12,1.29-10.23 C64.59,82.23,65.08,77.8,63.14,77.88z" fill="#FEFEFE"/>
  <path d="M37.21,77.94c0.81,0.94,4.95-1.69,7.93-3.33c3.58-1.97,7.55-3.86,6.71-5.53 c-0.84-1.67-5.03,1.29-7.93,2.8C41.02,73.4,35.84,76.35,37.21,77.94z" fill="#FEFEFE"/>
  <path d="M24.71,85.77c-0.87,0.65-3.3,0.24-4.35,1.05c-1.05,0.81-1.27,3.55-2.5,4.03 c-1.85,0.72-3.3-0.56-2.34-3.06c0.97-2.5,1.29-4.19,2.17-4.83c0.89-0.64,4.11-0.48,5.4-0.48C25.35,82.47,26,84.8,24.71,85.77z" fill="#FEFEFE"/>
</svg>

<svg viewBox="0 0 128 128" xmlns="http://www.w3.org/2000/svg">
  <defs/>
  <path d="M69.83,50.53 L69.43,32.1 C69.43,32.1 79.04,27.02 80.88,23.67 C82.72,20.32 81.96,14.7 79.91,14.49 C77.86,14.28 69,20.76 68.25,20 C67.49,19.24 71.92,13.84 71.71,11.79 C71.49,9.74 64.9,4.72 64.9,4.72 L57.45,13.19 C57.45,13.19 59.61,19.89 59.29,20.54 C58.97,21.19 48.81,14.92 46.65,15.35 C44.49,15.78 45.23,20.17 45.98,22.23 C46.74,24.28 60.58,30.69 60.58,30.69 L59.98,50.81 C59.98,50.81 57.45,50.77 56.8,51.1 C56.15,51.42 54.6,54.02 54.6,54.02 C54.6,54.02 40.05,46.14 39.94,44.52 C39.83,42.9 40.16,28.42 39.4,26.91 C38.64,25.4 35.4,23.64 33.78,23.64 C32.16,23.64 31.08,39.65 30.11,39.65 C29.14,39.65 25.46,30.25 24.38,30.25 C23.3,30.25 14.93,31.65 14.93,31.65 L18.12,44.4 L28.06,46.45 L15.89,60.21 C15.89,60.21 18.87,63.11 21.68,62.46 C24.49,61.81 32.59,53.71 33.45,53.71 C34.31,53.71 49.01,62.14 49.01,62.14 C49.01,62.14 48.36,63.65 48.79,64.52 C49.22,65.38 49.98,66.46 49.98,66.46 C49.98,66.46 35.4,75.32 34.42,75.1 C33.44,74.88 23.62,67.86 20.81,67.86 C18,67.86 16.27,71.53 16.27,71.53 L27.94,81.36 L18.11,86.22 L13.9,94.97 C13.9,94.97 23.41,98.32 24.7,97.99 C25.99,97.66 29.35,89.67 29.99,89.46 C30.64,89.24 30.88,91.28 30.88,91.28 C30.88,91.28 34.31,102 35.61,101.67 C36.91,101.34 40.15,99.29 40.58,97.67 C41.01,96.05 39.94,83.2 39.94,83.2 L55.28,74.87 C55.28,74.87 56.5,76.85 57.33,77.45 C57.98,77.92 61.21,78.23 61.21,78.23 L60.78,94.97 C60.78,94.97 44.78,101.87 44.24,103.81 C43.7,105.75 43.82,110.09 45.34,110.63 C46.85,111.17 58.65,105.77 59.19,106.2 C59.73,106.63 58.96,114.62 58.96,114.62 C58.96,114.62 65.3,123.58 66.7,122.72 C68.1,121.86 73.01,116.36 73.05,115.34 C73.14,113.41 68.33,106.76 68.42,106.37 C68.61,105.52 78.4,112.57 80.13,112.35 C81.86,112.13 83.15,110.3 83.15,108.24 C83.15,106.19 69.97,96.47 69.97,96.47 L69.76,77.9 C69.76,77.9 72.31,77.76 73.18,77.33 C74.04,76.9 75.76,72.99 75.76,72.99 L91.47,83.52 C91.47,83.52 90.82,101.24 92.44,102.32 C94.06,103.4 96.98,104.05 98.06,103.51 C99.14,102.97 99.25,87.85 99.25,87.85 L106.06,94.01 C106.06,94.01 115.84,93.14 115.84,91.84 C115.84,90.54 113.88,83.2 113.09,82.56 C111.68,81.42 105.46,81.98 104.73,81.59 C104.15,81.28 116.11,76.51 116.11,74.57 C116.11,72.63 112.2,69.56 111.12,69.45 C110.04,69.34 95.91,75.65 95.91,75.65 L79.49,65.93 C79.49,65.93 80.35,64.42 80.35,63.66 C80.35,62.9 79.28,61.63 79.28,61.63 L96.12,52.43 C96.12,52.43 110.92,57.72 112.32,57.08 C113.72,56.43 114.91,55.24 114.91,54.06 C114.91,52.88 102.41,47.13 103.35,46.61 C104.07,46.21 111.02,47.04 112.1,46.61 C113.18,46.18 116.62,37.42 116.51,36.99 C116.4,36.56 104.75,33.65 104.75,33.65 L99.56,39.81 C99.56,39.81 100.42,28.14 99.13,26.85 C97.84,25.56 94.35,26.2 92.95,27.17 C91.55,28.14 90.71,45.32 90.71,45.32 L74.87,53.91 C74.87,53.91 73.39,51.53 72.52,51.09 C71.67,50.62 69.83,50.53 69.83,50.53 Z" fill="#95C7EC"/>
  <path d="M76.44,56.05 L95,46.37 L94.72,26.4 C94.72,26.4 91.84,26.89 90.43,28.77 C89.02,30.65 89.49,43.28 89.49,43.28 L73.43,52.01 L76.44,56.05 Z" fill="#AFE3FF"/>
  <path d="M99.48,43.9 C99.48,43.9 105.56,36.34 106.73,35.96 C108.69,35.32 116.26,37.98 116.26,37.98 C116.26,37.98 117.1,35.89 116.76,35.08 C116.42,34.27 107.11,30.11 104.88,30.9 C103.14,31.52 99.6,38.24 99.6,38.24 L99.48,43.9 Z" fill="#AFE3FF"/>
  <path d="M98.96,50.74 C98.56,50.67 95.32,52.79 95.32,52.79 C95.32,52.79 104.94,58.62 107.76,58.75 C111.24,58.92 113.54,56.38 113.54,56.38 C113.54,56.38 111.05,56.45 109.24,55.78 C106.29,54.68 98.96,50.74 98.96,50.74 Z" fill="#AFE3FF"/>
  <path d="M77.19,70.09 L74.91,74.73 C74.91,74.73 88.62,83.26 88.68,83.67 C88.75,84.07 88.34,98.85 89.76,100.53 C91.17,102.21 93.86,103.08 93.86,103.08 C93.86,103.08 94.67,81.31 94.6,80.97 C94.52,80.63 77.19,70.09 77.19,70.09 Z" fill="#AFE3FF"/>
  <path d="M94.68,74.88 C94.68,74.88 104.34,68.34 106.96,68.34 C109.58,68.34 111.8,69.68 111.8,69.68 L99.02,77.41 L94.68,74.88 Z" fill="#AFE3FF"/>
  <path d="M99.7,84.71 C99.36,85.65 99.19,89.17 99.19,89.17 C99.19,89.17 102.33,96.56 104.54,97.36 C106.76,98.17 115.22,95.01 115.9,94.2 C116.57,93.39 115.58,90.11 115.58,90.11 C115.58,90.11 108.89,92.76 106.89,92.39 C104.33,91.92 99.7,84.71 99.7,84.71 Z" fill="#AFE3FF"/>
  <path d="M59.03,54.84 C58.06,55.81 53.83,62.02 53.75,63.22 C53.67,64.43 58.38,72.48 59.51,73.12 C60.64,73.76 69.74,73.12 69.74,73.12 L74.41,63.53 C74.41,63.53 70.3,54.75 69.66,54.59 C69.02,54.43 59.68,54.19 59.03,54.84 Z" fill="#AFE3FF"/>
  <path d="M63.18,22.06 C63.82,22.18 60.81,13.11 60.81,13.11 L67.47,6.82 C67.47,6.82 64.99,3.76 63.71,3.76 C62.42,3.76 55.41,10.28 55.41,11.82 C55.41,13.36 59.28,20.54 59.28,20.54 C59.28,20.54 61.96,21.83 63.18,22.06 Z" fill="#AFE3FF"/>
  <path d="M45.24,18.93 C45.24,18.93 45.25,23.46 46.7,25.07 C48.15,26.68 58.47,31.73 58.47,31.73 L58.73,50.84 L63.22,50.82 L63.22,28.58 C63.22,28.58 54.28,24.31 52.51,23.51 C50.74,22.7 46.53,20.62 45.24,18.93 Z" fill="#AFE3FF"/>
  <path d="M39.62,47.67 L53.15,56.21 L55.33,52.91 L39.94,43.89 Z" fill="#AFE3FF"/>
  <path d="M29.97,39.74 C29.97,39.74 32.83,42.55 33.45,42.53 C34.65,42.49 34.57,23.78 34.57,23.78 C34.57,23.78 32.26,22.91 31.05,24.04 C29.83,25.16 29.97,39.74 29.97,39.74 Z" fill="#AFE3FF"/>
  <path d="M28.51,44.29 C31.38,45.02 30.84,47.03 30.44,47.67 C30.04,48.31 16.91,61.04 16.91,61.04 C16.91,61.04 14.41,59.67 14.41,58.22 C14.41,56.77 25.8,47.4 25.2,47.26 C24.73,47.16 16.58,48.53 14.81,47.42 C13.67,46.71 10.51,34.82 11.11,33.22 C11.59,31.93 15.7,31.55 15.7,31.55 C15.7,31.55 17.15,42.18 18.28,42.75 C19.4,43.32 26.22,43.71 28.51,44.29 Z" fill="#AFE3FF"/>
  <path d="M49.7,65.97 L33.66,74.77 L37.69,78.04 L51.7,69.02 Z" fill="#AFE3FF"/>
  <path d="M31.41,80.78 C31.29,82.15 25.65,84.91 25.17,85.32 C24.69,85.72 19.41,84.49 19.08,84.97 C18.76,85.45 15.73,94.77 15.16,95.32 C15.08,95.4 11.87,94.4 11.63,93.87 C11.05,92.6 14.65,82.55 16.26,81.1 C17.87,79.65 24.96,81.5 25.2,81.02 C25.44,80.54 15.94,75.38 15.21,73.77 C14.49,72.16 17.55,69.58 17.55,69.58 C17.55,69.58 31.57,78.92 31.41,80.78 Z" fill="#AFE3FF"/>
  <path d="M33.49,86.1 C32.96,85.73 30.17,89.44 30.17,89.44 C30.17,89.44 31.15,101.43 32.06,102.2 C32.98,102.98 35.63,101.66 35.63,101.66 C35.63,101.66 34.29,86.66 33.49,86.1 Z" fill="#AFE3FF"/>
  <path d="M59.2,77.93 C59.2,77.93 59.35,92.86 59.03,93.42 C58.71,93.98 46.56,99.75 44.85,101.96 C43.69,103.46 43.99,107.41 43.99,107.41 C43.99,107.41 62.65,96.89 63.05,96.57 C63.45,96.25 63.14,77.98 63.14,77.98 L59.2,77.93 Z" fill="#AFE3FF"/>
  <path d="M83.13,108.57 C83.13,108.57 70.3,100.62 70.15,99.55 C70,98.53 69.92,94.11 69.92,94.11 C69.92,94.11 81.19,102.04 82.32,103.89 C83.45,105.74 83.13,108.57 83.13,108.57 Z" fill="#AFE3FF"/>
  <path d="M60.4,113.56 C60.6,115.65 68.02,121.61 68.02,121.61 C68.02,121.61 65.67,124.15 64.46,124.23 C63.25,124.31 55.32,116.7 55.16,115.42 C55,114.13 59.19,106 59.19,106 C59.19,106 61.07,105.1 62.49,104.8 C63.39,104.6 60.21,111.53 60.4,113.56 Z" fill="#AFE3FF"/>
  <path d="M71,62.49 C71,62.49 69.81,64.86 69.22,66.2 C68.63,67.54 67.89,69.83 67.89,69.83 C67.89,69.83 62.33,70.26 60.85,70.2 C58.92,70.13 57.81,73.61 60.63,73.68 C63.45,73.75 70.19,73.9 70.78,73.46 C71.37,73.02 75.74,65.01 75.74,63.23 C75.74,61.45 71.89,56.49 70.48,55.08 C68.84,53.44 65.96,55.08 67.59,57.75 C69.22,60.42 71,62.49 71,62.49 Z" fill="#FEFEFE"/>
  <path d="M93.43,29.63 C91.17,29.55 91.34,32.61 91.42,36.15 C91.5,39.69 91.74,42.03 93.59,42.03 C95.85,42.03 95.44,37.12 95.44,34.86 C95.44,32.61 95.77,29.71 93.43,29.63 Z" fill="#FEFEFE"/>
  <path d="M63.79,7.56 C65.1,8.87 63.31,11.1 62.58,11.75 C61.86,12.39 59.84,13.68 58.47,12.39 C57.1,11.1 58.71,9.25 60,8.28 C61.29,7.31 62.82,6.59 63.79,7.56 Z" fill="#FEFEFE"/>
  <path d="M63.3,27.86 C61.21,27.62 61.29,32.77 61.37,39.06 C61.47,47.12 61.37,50.9 63.06,50.82 C64.99,50.73 64.43,46.71 64.43,38.33 C64.43,33.73 64.91,28.04 63.3,27.86 Z" fill="#FEFEFE"/>
  <path d="M14.97,33.09 C12.24,33.94 13.44,37.28 14.16,39.7 C14.62,41.24 16.02,45.63 18.59,44.86 C21.16,44.09 19.64,40.43 19.07,38.09 C18.52,35.75 17.31,32.37 14.97,33.09 Z" fill="#FEFEFE"/>
  <path d="M92.3,89.56 C90.69,89.56 90.53,92.62 90.53,95.36 C90.53,98.1 90.53,100.11 92.38,100.11 C94.23,100.11 93.91,96.08 93.91,94.63 C93.91,93.18 94.16,89.56 92.3,89.56 Z" fill="#FEFEFE"/>
  <path d="M63.14,77.88 C61.77,77.94 61.61,81.02 61.61,87.06 C61.61,93.1 61.28,96.67 63.3,96.57 C64.91,96.49 64.59,90.45 64.59,86.34 C64.59,82.23 65.08,77.8 63.14,77.88 Z" fill="#FEFEFE"/>
  <path d="M37.21,77.94 C38.02,78.88 42.16,76.25 45.14,74.61 C48.72,72.64 52.69,70.75 51.85,69.08 C51.01,67.41 46.82,70.37 43.92,71.88 C41.02,73.4 35.84,76.35 37.21,77.94 Z" fill="#FEFEFE"/>
  <path d="M24.71,85.77 C23.84,86.42 21.41,86.01 20.36,86.82 C19.31,87.63 19.09,90.37 17.86,90.85 C16.01,91.57 14.56,90.29 15.52,87.79 C16.49,85.29 16.81,83.6 17.69,82.96 C18.58,82.32 21.8,82.48 23.09,82.48 C25.35,82.47 26,84.8 24.71,85.77 Z" fill="#FEFEFE"/>
</svg>
